img/hero/icons/01.svg

<svg width="24" height="24" viewBox="0 0 24 24" fill="none" xmlns="http://www.w3.org/2000/svg">
<g id="Ic_24-Guarantee">
<path id="Star 6" d="M10.5752 2.94625C11.3586 2.15104 12.6414 2.15104 13.4248 2.94625L14.4681 4.00535C14.8477 4.39062 15.367 4.60576 15.9078 4.60171L17.3945 4.59058C18.5108 4.58222 19.4178 5.48924 19.4094 6.60549L19.3983 8.09215C19.3942 8.63295 19.6094 9.15234 19.9947 9.53188L21.0537 10.5752C21.849 11.3586 21.849 12.6414 21.0537 13.4248L19.9947 14.4681C19.6094 14.8477 19.3942 15.367 19.3983 15.9078L19.4094 17.3945C19.4178 18.5108 18.5108 19.4178 17.3945 19.4094L15.9078 19.3983C15.367 19.3942 14.8477 19.6094 14.4681 19.9947L13.4248 21.0537C12.6414 21.849 11.3586 21.849 10.5752 21.0537L9.53188 19.9947C9.15234 19.6094 8.63295 19.3942 8.09215 19.3983L6.60549 19.4094C5.48924 19.4178 4.58222 18.5108 4.59058 17.3945L4.60171 15.9078C4.60576 15.367 4.39062 14.8477 4.00535 14.4681L2.94625 13.4248C2.15104 12.6414 2.15104 11.3586 2.94625 10.5752L4.00535 9.53188C4.39062 9.15234 4.60576 8.63295 4.60171 8.09215L4.59058 6.60549C4.58222 5.48924 5.48924 4.58222 6.60549 4.59058L8.09215 4.60171C8.63295 4.60576 9.15234 4.39062 9.53188 4.00535L10.5752 2.94625Z" stroke="white" stroke-width="2"/>
<path id="Vector" d="M16 10L11.625 14L9 12.1176" stroke="white" stroke-width="2" stroke-linecap="round" stroke-linejoin="round"/>
</g>
</svg>

<svg width="24" height="24" viewBox="0 0 24 24" fill="none" xmlns="http://www.w3.org/2000/svg"><g stroke="#fff" stroke-width="2"><path d="M10.575 2.946a2 2 0 012.85 0l1.043 1.06a2 2 0 001.44.596l1.487-.011a2 2 0 012.014 2.014l-.01 1.487a2 2 0 00.596 1.44l1.059 1.043a2 2 0 010 2.85l-1.06 1.043a2 2 0 00-.596 1.44l.011 1.487a2 2 0 01-2.014 2.014l-1.487-.01a2 2 0 00-1.44.596l-1.043 1.059a2 2 0 01-2.85 0l-1.043-1.06a2 2 0 00-1.44-.596l-1.487.011a2 2 0 01-2.014-2.014l.01-1.487a2 2 0 00-.596-1.44l-1.059-1.043a2 2 0 010-2.85l1.06-1.043a2 2 0 00.596-1.44L4.59 6.605a2 2 0 012.014-2.014l1.487.01a2 2 0 001.44-.596l1.043-1.059z"/><path d="M16 10l-4.375 4L9 12.118" stroke-linecap="round" stroke-linejoin="round"/></g></svg>
